X:3207
T:Geneviève's Jig
P:The Chantreus
C:Astor's 24 Country Dances for the year 1803
R:Jig (4x32)
B:RSCDS 32-7
Z:Anselm Lingnau <anselm@strathspey.org>
M:6/8
L:1/8
K:C
|:G|"C"c2 c cBc|"G"d2B "G7"GAB|"C"c2c "C7"e2g|"Dm"d2e "G7"fed|
    "C"c2c "D7"cBA|"G"B2c d2e|"Dm"A2d "G"BAB|"C"c3 c2:|
|:g|"F"c'2a "G"b2g|"F"c'2a "G"g2e|"C"c>dc efg|"Dm"afd "G"d2 z/(3g/4a/4b/4|
    "Am"c'2a "G"b2g|"F"c'2a "G"gec|"G"G>AG "G7"GAB|"C"[c3E3] [c'3e3]:|
